X:1
T:Field (Sabbath), SM
T:Field (Sabbath), SM
T:Sabbath Tune and Hymn Book, 1859
T:Public Domain Courtesy of the Cyber Hymnal™
C:Sabbath Tune and Hymn Book, 1859
Z:Public Domain
Z:Courtesy of the Cyber Hymnal™
%%score ( 1 2 ) ( 3 4 )
L:1/8
Q:1/4=108
M:4/4
K:G
V:1 treble 
V:2 treble 
V:3 bass 
V:4 bass 
V:1
 ([B,G]3 [CA]) | [DB]2 [DB]2 [Dc]2 [DB]2 | [DA]4 (F3 G) | [DA]2 [DA]2 [DB]2 [CA]2 | [B,G]4 (B3 c) | %5
 [Gd]2 [Gd]2 [Ge]2 [Gd]2 | [Ac]2 [Ac]2 [GB]2 [FA]2 | [EG]2 [EG]2 [EA]2 [DF]2 | [DG]4 |] %9
V:2
 x4 | x8 | x4 D4 | x8 | x4 G4 | x8 | x8 | x8 | x4 |] %9
V:3
 G,4 | G,2 G,2 [F,A,]2 G,2 | [D,F,]4 (D,3 E,) | [D,F,]2 [D,F,]2 G,2 [D,F,]2 | [G,,G,]4 D4 | %5
 [B,D]2 [G,B,]2 C2 [B,D]2 | [A,E]2 [F,D]2 [G,D]2 [D,C]2 | [E,B,]2 [E,B,]2 [C,C]2 [F,A,]2 | %8
 [G,,B,]4 |] %9
V:4
 G,4 | G,2 G,2 G,2 x2 | x4 D,4 | x4 G,2 x2 | x4 (G,3 A,) | x4 C2 x2 | x8 | x8 | x4 |] %9

